X:373
T: Why Should We Quarrel[l] for Riches
N: O'Farrell's Pocket Companion v.4 (Sky ed. p.161)
N: "Irish"
M: 9/8
L: 1/8
Q: 300
R: slip jig
K: Em % No repeats in original.
g| dBB B>AG AGA| B>cB AGF E2e| dBB B>AG AGA| B>cB AGF E2F|
G>AG GBd dBA| B>cB Bgf He2 g/e/| dBB B>AG AGA| B>AG AGF E2||
P:2 % version with repeats
g| dBB B>AG AGA| B>cB AGF E2e| dBB B>AG AGA| B>cB AGF E2 :|
F|G>AG GBd dBA| B>cB Bgf He2 g/e/| dBB B>AG AGA| B>AG AGF E2 :|
